X: 1
T:Gan Ainm
R:jig
S:Version 2: Kevin Finucane
M:6/8
L:1/8
K:D
~d3 edc|dAF DFA|~G3 EFG|ABc dfe|!
~d3 edc|dAF DFA|~G3 EAG|FDD D3:|!
|:~d3 ~a3|dag afd|B2g gfg|Beg bge|!
~d3 ~a3|dag a2b|afd gec|dAF D3:|!
K:C
"Version 2"
~c3 dcB|cGE CEG|~F3 DEF|GAB ced|!
~c3 dcB|cGE CEG|~F3 DGF|ECC C3:|!
|:~c3 ~g3|cg^f gec|~A3 fef|Adf afd|!
~c3 ~g3|cg^f g2a|gec fdB|cGE C3:|!
